X:1
T:Fantasy \`a 5 VdGS No. 5
%%score [1 2 3 4 5]
C:Richard Deering
L:1/4
M:4/2
K:C 
V:1 clef=treble
 z2 e3 d/c/ d/c/B/A/ | ^G E G A B c d2- | d c/B/ c3 B/A/ B2 | c d e d/c/ d4 | g2 f2 e4 | d4 z4 | %6
 Z2 | e4 f4 | e3 f g f e/f/d/e/ | ^c3/2 d/ e4 d2 | A3/2 G/ F G A4 | z4 z2 a2- | %13
 a g/f/ g/f/e/d/ ^c d e2 | z d d a d ^c d e | f e/d/ a f e d B A | ^G c B2 ^c3 d | e4 z e a d | %18
 g3/2 d/ e c z A d B | ^c3/2 A/ d2 e4 | z2 e4 d2 | ^c2 B2 A4 | z2 a g ^f e/d/ f e | %23
 d e/f/ g3 f e2- | e d B2 ^c2 z2 | Z3 | z e ^c3/2 d/ e A/B/ =c/B/c/d/ | %29
 e/d/e/f/ g2 z e d c- | c/B/ e3/2 d/ c B A ^G A- | A ^G A2 z4 | z4 z a a/g/f/e/ | %33
 d/c/B/A/ ^G A d B A d- | d ^c z d ^f3/2 f/ g3/2 =f/ | e d2 ^c d f g3/2 g/ | a2 g e f d e c | %37
 d B e/d/ d2 ^c d2 | e2 f2 e4- | e4 z4 | Z4 | z2 a2 f d3/2 ^c/ d | %45
 e f/g/ a/e/g/f/ e/d/ e A2 | z4 z e d f- | f/e/d/c/ B A ^G A2 G | A2 B c/d/ e/B/d/c/ B/A/ B | %49
 A2 z4 z e | c A3/2 ^G/ A G ^F E2 | e6 f2 | e4 e4 |]
V:2 clef=treble
 Z4 | z4 z2 a2- | a g/f/ g/f/e/d/ ^c A c d | e f g3 f/e/ f2- | f e/d/ e2 f3 e/d/ | %8
 e/f/ g ^f e d4 | z8 | e4 f4 | e2 d2 ^c2 A2 | D4 E2 A2 | A4 z4 | z4 z A A e | %15
 A ^G A B c B/A/ e c | B A2 ^G A3 B | c2 B A ^G2 A2 | z2 z A d3/2 A/ B3/2 G/ | ^F E D2 z2 E F | %20
 ^G3/2 A/ B2 z2 B A | ^G ^F/E/ G F E4 | D4 z2 d2 | G2 B3 A A2- | A2 ^G2 A4 | Z3 | %28
 z2 z e ^c3/2 d/ e A/B/ | c/B/c/d/ e/d/e/f/ g2 z e | d c3/2 B/ e d3 c | B2 ^c2 z4 | %32
 z4 z A ^c3/2 c/ | d3/2 c/ B A A ^G A _B | A3/2 G/ ^F3/2 E/ D d/c/B/A/ G | A/G/ ^F E2 D2 z2 | %36
 z8 | z4 z2 z a | a/g/f/e/ d/c/B/A/ ^G A B2 | ^c3 d e4 | A4 G4- | G4 ^G2 A2 | B4 A3 c | %43
 B2 _B2 A4 | A2 e2 d f3/2 e/ d | ^c d/e/c/A/ d2 c d2 | A2 E F E2 z a- | %47
 a f e c/d/ e/B/d/c/ B/A/ B | E2 z4 z e | c A3/2 ^G/ A e f e2 | e3 c B z2 B | %51
 A c3/2 B/ A ^G2 A2- | A2 ^G2 A4 |]
V:3 clef=alto
 E4 F4 | E3 F G3 F/E/ | F3 E D4 | E F G2 G3 D | E2 D4 ^C2 | D4 E2 A2 | G F E D/C/ D3 C | %7
 _B,3 C/B,/ A,2 D2- | D ^C/B,/ D C D E F G | A4 _B A G F/G/ | A2 z2 z4 | z4 z2 A2- | %12
 A G/F/ G/F/E/D/ ^C2 D2 | ^C4 A,2 A2 | ^F2 =F3 E F E | D/C/ B, A, D E ^F ^G A | E4 E3 F | %17
 G3 F E2 D3/2 C/ | B,3/2 A,/ G,2 A,2 z2 | z2 A2 ^G2 A2 | E3 B, ^C2 D2 | E4 A,4 | A4 z2 D C | %23
 B, A,/G,/ G F E4 | E6 z C/D/ | E3/2 F/ G A G c3/2 B/ A | B3 A ^G2 B, A, | B,3 A, B, B2 A- | %28
 A ^G A2 A,4 | A G C3/2 D/ E/D/ C B, A, | G,3 C D2 E2- | E2 A,2 E2 ^F/E/ D- | D C B,2 ^C2 z2 | %33
 z4 z E A G/F/ | E/D/ E D/E/^F/^G/ A2 z2 | z4 z c c/_B/A/G/ | F/E/D/C/ B, C D2 C2 | z4 z2 z A | %38
 ^c3/2 c/ d3/2 =c/ B A A ^G | A6 G2 | F6 E2- | E2 D4 C2 | B,4 A,4 | G,2 G4 ^F2 | E4 D3 _B, | %45
 A,3 G, A,2 D2 | E F z2 A2 F D- | D/^C/ D E F E4 | E4 z2 z E | A c3/2 B/ A ^G A2 G | %50
 A2 z2 z A,2 ^G, | A,2 B, C/D/ E B, D C | B, A, B,2 ^C4 |]
V:4 clef=bass
 Z3 | z2 C3 B,/A,/ B,/A,/G,/F,/ | E, D,/^C,/ D,/E,/F,/G,/ A,/B,/C/B,/ A, G, | %5
 F, E, D,2 A,4 | Z2 | z4 z2 D2- | D C/_B,/ C B,/A,/ G, A, B,2 | A,3/2 B,/ C2 _B,2 F, G, | %11
 A,2 z2 A,4 | _B,4 A,3/2 G,/ F, G, | A,4 A,,4 | D,4 z4 | z8 | z4 z2 A,2- | A,2 B,2 C2 A,2 | %18
 B,2 C2 D2 B,2 | A,2 D4 ^C2 | B,4 A,4 | z2 E D ^C B,/A,/ C B, | A,3 B,/C/ D C B, A, | %23
 B,2 G,2 C2 C, D, | E,4 A,,4 | z2 z A,/B,/ C2 E, F, | E,3/2 ^F,/ ^G, A, E,2 z ^C/D/ | %27
 E2 ^G, A, G,/A,/B,/^C/ D2 | C B, A,2 z4 | Z2 | z E E/D/C/B,/ A,/G,/F,/E,/ D,/C,/B,,/A,,/ | %32
 ^G,, A,, D, E, A,,2 A,3/2 G,/ | ^F,/E,/ D, E, =F, D, E, F, G, | A,2 D,2 z4 | z4 z C E3/2 E/ | %36
 F3/2 E/ D C A, B, C/B,/A,/G,/ |^F,  G, E, F, G,2 F, E,/D,/ | A, A,, D,2 E,4 | z4 z2 E2- | %40
 E2 D4 C2- | C2 B,4 A,2- | A,2 ^G,2 z2 D2- | D2 E D C2 D2- | D ^C/B,/ C2 D2 z2 | z4 z E D F- | %46
 F/E/ D ^C D2 C D2 | z4 z2 E,2 | C, A,,3/2 ^G,,/ A,, E, D, E,2 | %49
 A,,2 A, C/D/ E/B,/D/C/ B,/A,/ B, | A, C3/2 B,/ A, E, D, E,2 | A,,2 z4 A,2 | E D/C/ B,2 A,4 |]
V:5 clef=bass
 Z4 | z4 A,,4 | _B,,4 A,,3 B,, | C,3 _B,,/A,,/ B,,2 _B, A, | %7
 G,4 F,3/2 E,/ D, C,/B,,/ | A,,4 D,4 | z8 | z2 A,3 G,/F,/ G,/F,/E,/D,/ | ^C,2 D,2 A,,4 | %12
 z4 z2 F2- | F E/D/ E/D/C/D/ E D2 ^C | D2 z D, D, A, D, ^C, | D, E, F, E,/D,/ A, ^F, E,2- | %16
 E,4 A,,4 | z2 E,4 ^F,2 | G,2 E,2 ^F,2 G,2 | A,2 ^F,2 E,2 A,2- | A,2 ^G,2 ^F,4 | E,4 z2 A, G, | %22
 ^F, E,/D,/ =F, E, D,3 E,/F,/ | G, F, E, D, C,2 C2 | B,4 A,2 z A,/B,/ | %25
 C2 E, F, E,3/2 ^F,/ G, A, | ^G,3/2 A,/ B, ^C/D/ E2 G, A, | ^G,3/2 ^F,/ E, =F, E,2 D,2 | %28
 E,2 A,,2 z4 | Z2 | z2 z A, ^C3/2 C/ D3/2 =C/ | B, A,2 ^G, A,2 A,,2 | D,2 z2 z4 | %34
 z2 z D D/C/B,/A,/ G,/F,/E,/D,/ | ^C, D, G, A, _B,/A,/G,/F,/ C2 | F,2 G, A, F, G, C, F, | %37
 D, E, ^C, D, E,2 D,2 | z8 | z2 A,4 C2 | F,4 G,4- | G,4 E,4- | E,4 ^F,4 | G,4 A,4- | A,4 D,2 z2 | %45
 z4 z A, F, D,- | D,/^C,/ D, A, G,/F,/ G, A, D,2 | z4 z2 z B, | A, C3/2 B,/ A, ^G, A,2 G, | %49
 A,3 F, E, D, E,2 | A,,2 A, C/D/ E/B,/D/C/ B,/A,/ B, | ^C A, ^G, A, E,2 D,2 | E,4 A,,4 |]

